icon/ir/bed-ready.svg

<svg viewBox="0 0 24 24" stroke-width="1.5" fill="none" xmlns="http://www.w3.org/2000/svg" height="1em" width="1em">
  <path d="M21 16V4C21 2.89543 20.1046 2 19 2H5C3.89543 2 3 2.89543 3 4V20C3 21.1046 3.89543 22 5 22H14" stroke="currentColor" stroke-linecap="round" stroke-linejoin="round"/>
  <path d="M3 8L11 8L11 6" stroke="currentColor" stroke-linecap="round" stroke-linejoin="round"/>
  <path d="M21 8L13 8L13 6" stroke="currentColor" stroke-linecap="round" stroke-linejoin="round"/>
  <path d="M16 20L18 22L22 18" stroke="currentColor" stroke-linecap="round" stroke-linejoin="round"/>
</svg>

<svg width="24" height="24" stroke-width="1.5" fill="none" xmlns="http://www.w3.org/2000/svg"><path d="M21 16V4a2 2 0 0 0-2-2H5a2 2 0 0 0-2 2v16a2 2 0 0 0 2 2h9" stroke="currentColor" stroke-linecap="round" stroke-linejoin="round"/><path d="M3 8h8V6M21 8h-8V6M16 20l2 2 4-4" stroke="currentColor" stroke-linecap="round" stroke-linejoin="round"/></svg>
